X: 964
T: Hani O Bırakıp Giderken Seni
C: Yusuf Nalkesen
O: Turkey
F: http://compmusic.upf.edu/node/140
N: muhayyerkurdi--sarki--yuruksemai_ii--hani_o--yusuf_nalkesen
N: makam= muhayyerkurdi
N: form= sarki
N: usul= yuruksemai_ii = 6/8
M: 6/8
L: 1/16
K: C _B   
Q: 1/4=144
%%MIDI tuningsystem comma53
a6e6  | f2g3fe6  | g6e6  | e2f3dc6  | c2d2 c2e2 d2c2  | \
w:  ARANAĞME  |   |   |   |   | 
f4 edd6  | 
w:   | 
.c4 .d2.B4.d2  | .c4 .d2.B4.d2  | A4 f2e4dc  | \
w:   |   |   | 
c4 BAA4z2  | a6e6  | f2g3fe6  | 
w:   |  ARANAĞME  |   | 
g6e6  | e2f3dc6  | c2d2 c2e2 d2c2  | f4 edd6  | \
w:   |   |   |   | 
.c4 .d2.B4.d2  | .c4 .d2.B4.d2  | 
w:   |   | 
A4 f2e4dc  | c4 BAA4z2  | g2e4e6  | e2f4f2 e2d2  | \
w:   |   |  Ha ni  o   |  bı ra kıp   | 
e2g4g2 f2fe  | 
w:  gi der ken  *  se  | 
e12  | e2f4f2 e2d2  | e4 eded c4  | c4 d2e2 g2fe  | e12  | \
w:  ni    |  Bu  ök süz   |  tav rı *  nı   |  tak ma ya cak  |  tın    | 
A6c6  | 
w:  SAZ  | 
d4 B2A4z2  | g2e4e6  | e2f4f2 e2d2  | e2g4g2 f2fe  | e12  | \
w:   |  Ha ni  o   |  bı ra kıp   |  gi der ken  *  se  |  ni    | 
e2f4f2 e2d2  | 
w:  Bu  ök süz   | 
e4 eded c4  | c4 d2e2 g2fe  | e12  | a6g6  | \
w:  tav rı *  nı   |  tak ma ya cak  |  tın    |  SAZ  | 
f6e6  | d4 d2c6  | c2e3dc6  | 
w:   |  Al nı na   |  ko yar *  ken   | 
c2f4e2 d2cB  | B12  | d2d3ed2 c4  | f2f3ee2 d2c2  | \
w:  ve dâ  bû *  se  |  ni    |  Yü zü *  ne   |  bu  tür *  lü   | 
d4 e2c2 B2BA  | 
w:  bak ma ya cak  | 
A12  | A2B2 c2d2 c2B2  | f4 edd4z2  | d4 d2c6  | \
w:  tın    |  SAZ  |   |  Al nı na   | 
c2e3dc6  | c2f4e2 d2cB  | 
w:  ko yar *  ken   |  ve dâ  bû *  se  | 
B12  | d2d3ed2 c4  | f2f3ee2 d2c2  | d4 e2c2 B2BA  | A12  | \
w:  ni    |  Yü zü *  ne   |  bu  tür *  lü   |  bak ma ya cak  |  tın    | 
A6d6  | 
w:  SAZ  | 
c6f6  | d6a6  | c'4 baa6  | a4 a2a6  | b4 g2a6  | \
w:   |  SAZ  |   |  Gel se  de   |  en  a cı   | 
a2b4ga gffe  | 
w:  söz ler  di *  li  | 
e6d6  | a2b4b6  | abag fef6  | a2g4f2 g2ba  | a12  | \
w:  me   SAZ  |  U ça cak   |  sa *  nı *  *  *  rım   |  bir kaç  ke li  |  me    | 
c'6b6  | 
w:  SAZ  | 
c'4 baa6  | a4 a2a6  | b4 g2a6  | a2b4ga gffe  | \
w:   |  Gel se  de   |  en  a cı   |  söz ler  di *  li  | 
e6d6  | a2b4b6  | 
w:  me   SAZ  |  U ça cak   | 
abag fef6  | a2g4f2 g2ba  | a12  | c'6b6  | \
w:  sa *  nı *  *  *  rım   |  bir kaç  ke li  |  me    |  SAZ  | 
c'4 baa6  | a4 a2c'4ba  | 
w:   |  Bir  a lev   | 
b4 agg6  | e2f4c2 d2fe  | e4 dcc6  | d2c4f6  | \
w:  ha lin *  de   |  düş tün  e li  |  me    |  Ha ni  ey   | 
e4 d2e3dc2  | 
w:  göz ya şım   | 
c4 d2e2 g2fe  | e8-e2z2  | d2c4f4e2  | e4 d2ed c4  | \
w:  ak ma ya cak  |  tın    |  Ha ni  ey   |  göz ya şım   | 
d4 e2c2 B2BA  | 
w:  ak ma ya cak  | 
A12  | |


